public/linkedin.svg

<svg width="22" height="22" viewBox="0 0 22 22" fill="none" xmlns="http://www.w3.org/2000/svg">
<path fill-rule="evenodd" clip-rule="evenodd" d="M2.7206e-07 1.838C2.7206e-07 1.35053 0.193646 0.883032 0.538338 0.53834C0.88303 0.193648 1.35053 2.45031e-06 1.838 2.45031e-06H20.16C20.4016 -0.000392101 20.6409 0.0468654 20.8641 0.139069C21.0874 0.231273 21.2903 0.366612 21.4612 0.537339C21.6322 0.708065 21.7677 0.910826 21.8602 1.13401C21.9526 1.3572 22.0001 1.59643 22 1.838V20.16C22.0003 20.4016 21.9529 20.6409 21.8606 20.8642C21.7683 21.0875 21.6328 21.2904 21.462 21.4613C21.2912 21.6322 21.0884 21.7678 20.8651 21.8602C20.6419 21.9526 20.4026 22.0001 20.161 22H1.838C1.59655 22 1.35746 21.9524 1.1344 21.86C0.911335 21.7676 0.708671 21.6321 0.537984 21.4613C0.367297 21.2905 0.231932 21.0878 0.139623 20.8647C0.0473133 20.6416 -0.000131096 20.4025 2.7206e-07 20.161V1.838ZM8.708 8.388H11.687V9.884C12.117 9.024 13.217 8.25 14.87 8.25C18.039 8.25 18.79 9.963 18.79 13.106V18.928H15.583V13.822C15.583 12.032 15.153 11.022 14.061 11.022C12.546 11.022 11.916 12.111 11.916 13.822V18.928H8.708V8.388ZM3.208 18.791H6.416V8.25H3.208V18.79V18.791ZM6.875 4.812C6.88105 5.08668 6.83217 5.35979 6.73124 5.61532C6.63031 5.87084 6.47935 6.10364 6.28723 6.30003C6.09511 6.49643 5.8657 6.65248 5.61246 6.75901C5.35921 6.86554 5.08724 6.92042 4.8125 6.92042C4.53776 6.92042 4.26579 6.86554 4.01255 6.75901C3.7593 6.65248 3.52989 6.49643 3.33777 6.30003C3.14565 6.10364 2.99469 5.87084 2.89376 5.61532C2.79283 5.35979 2.74395 5.08668 2.75 4.812C2.76187 4.27286 2.98439 3.75979 3.36989 3.38269C3.75539 3.00558 4.27322 2.79442 4.8125 2.79442C5.35178 2.79442 5.86961 3.00558 6.25512 3.38269C6.64062 3.75979 6.86313 4.27286 6.875 4.812Z" fill="#F1F5F8"/>
</svg>

<svg width="22" height="22" fill="none" xmlns="http://www.w3.org/2000/svg"><path fill-rule="evenodd" clip-rule="evenodd" d="M0 1.838A1.838 1.838 0 0 1 1.838 0H20.16A1.836 1.836 0 0 1 22 1.838V20.16A1.838 1.838 0 0 1 20.161 22H1.838A1.839 1.839 0 0 1 0 20.161V1.838Zm8.708 6.55h2.979v1.496c.43-.86 1.53-1.634 3.183-1.634 3.169 0 3.92 1.713 3.92 4.856v5.822h-3.207v-5.106c0-1.79-.43-2.8-1.522-2.8-1.515 0-2.145 1.089-2.145 2.8v5.106H8.708V8.388Zm-5.5 10.403h3.208V8.25H3.208V18.791ZM6.875 4.812a2.063 2.063 0 1 1-4.125.09 2.063 2.063 0 0 1 4.125-.09Z" fill="#F1F5F8"/></svg>
